apex/img/step-item-icon2.svg

<svg width="110" height="104" viewBox="0 0 110 104" fill="none" xmlns="http://www.w3.org/2000/svg">
<path d="M102.55 0H6.83723C3.06149 0 0.000610352 3.08727 0.000610352 6.89556V68.9556C0.000610352 72.7639 3.06149 75.8512 6.83723 75.8512H102.55C106.326 75.8512 109.387 72.7639 109.387 68.9556V6.89556C109.387 3.08727 106.326 0 102.55 0ZM102.55 68.9556H6.83723V6.89556H102.55V68.9556Z" fill="#E5A132"/>
<path d="M58.1113 62.0603C67.5507 62.0603 75.2028 54.3423 75.2028 44.8214H68.3662C68.3222 50.5338 63.6955 55.1286 58.032 55.0842C53.7465 55.0506 49.9334 52.3326 48.4716 48.2692H54.693V41.3737H47.8564V34.4781H54.693V27.5825H48.4716C50.4034 22.2126 56.2855 19.4391 61.6095 21.3875C65.6382 22.8619 68.3329 26.7077 68.3662 31.0303H75.2028C75.2122 21.5095 67.5678 13.7837 58.1284 13.7742C49.9936 13.766 42.9803 19.5417 41.3616 27.5825H34.1831V34.4781H41.0197V41.3737H34.1831V48.2692H41.3616C42.9861 56.2967 49.9883 62.0621 58.1113 62.0603Z" fill="#E5A132"/>
<path d="M3.41831 82.7471H0C0 86.5554 3.06088 89.6426 6.83662 89.6426H102.549C106.325 89.6426 109.386 86.5554 109.386 82.7471H6.83662H3.41831Z" fill="#E5A132"/>
<path d="M3.41831 96.5378H0C0 100.346 3.06088 103.433 6.83662 103.433H102.549C106.325 103.433 109.386 100.346 109.386 96.5378H6.83662H3.41831Z" fill="#E5A132"/>
</svg>

<svg width="110" height="104" fill="none" xmlns="http://www.w3.org/2000/svg"><path d="M102.55 0H6.837C3.061 0 .001 3.087.001 6.896v62.06c0 3.808 3.06 6.895 6.836 6.895h95.713c3.776 0 6.837-3.087 6.837-6.895V6.896c0-3.809-3.061-6.896-6.837-6.896zm0 68.956H6.837V6.896h95.713v62.06z" fill="#E5A132"/><path d="M58.111 62.06c9.44 0 17.092-7.718 17.092-17.239h-6.837c-.044 5.713-4.67 10.308-10.334 10.263-4.285-.033-8.099-2.751-9.56-6.815h6.221v-6.895h-6.837v-6.896h6.837v-6.896h-6.221c1.931-5.37 7.813-8.143 13.137-6.195 4.03 1.475 6.724 5.32 6.757 9.643h6.837c.01-9.52-7.635-17.246-17.075-17.256-8.134-.008-15.148 5.768-16.766 13.809h-7.179v6.895h6.837v6.896h-6.837v6.895h7.179c1.624 8.028 8.626 13.793 16.75 13.791zM3.418 82.747H0c0 3.808 3.06 6.896 6.837 6.896h95.712c3.776 0 6.837-3.088 6.837-6.896H3.418zm0 13.791H0c0 3.808 3.06 6.895 6.837 6.895h95.712c3.776 0 6.837-3.087 6.837-6.895H3.418z" fill="#E5A132"/></svg>
